X: 17226
T: Her Long Dark Hair Flowing Down Her Back
R: hornpipe
M: 4/4
K: Dmajor
|:fedf efdA|BAFB ABde|fedf e2de|fbba b2ag|
fedf efdA|BAFB ABde|fedf edBA|ABBA Bcde:|
|:faab afef|dBAB d3 e|fbba b2ag|fedf e2de|
faab afef|dBAB d3e|fedf edBA|ABBA Bcde:|

